; generated by Slic3r 1.3.0 on 2021-06-20 at 18:40:10

; external perimeters extrusion width = 0.44mm (2.25mm^3/s)
; perimeters extrusion width = 0.48mm (5.03mm^3/s)
; infill extrusion width = 0.48mm (7.54mm^3/s)
; solid infill extrusion width = 0.48mm (6.03mm^3/s)
; top infill extrusion width = 0.48mm (1.88mm^3/s)

M107
M104 S220 ; set temperature
M900 K0.0
M501;
M420 S1;
G28 ; home all axes
G1 Z7 F5000 ; lift nozzle



; Filament gcode

M109 S220 ; set temperature and wait for it to be reached
G21 ; set units to millimeters
G90 ; use absolute coordinates
M82 ; use absolute distances for extrusion
G92 E0
G1 Z0.400 F7800.000
G1 E-1.00000 F3000.00000
G92 E0
G1 X5.505 Y31.490 F7800.000
G1 E1.00000 F3000.00000
G1 F1800
G1 X134.407 Y7.686 E16.56786
G1 X135.259 Y7.596 E16.66964
G1 X136.082 Y7.588 E16.76736
G1 X136.936 Y7.659 E16.86913
G1 X137.488 Y7.750 E16.93564
G1 X138.288 Y7.947 E17.03339
G1 X139.095 Y8.228 E17.13495
G1 X139.608 Y8.454 E17.20154
G1 X140.335 Y8.843 E17.29945
G1 X141.048 Y9.317 E17.40108
G1 X141.688 Y9.835 E17.49892
G1 X142.095 Y10.221 E17.56553
G1 X142.667 Y10.856 E17.66704
G1 X143.008 Y11.302 E17.73372
G1 X143.456 Y11.992 E17.83140
G1 X143.853 Y12.750 E17.93305
G1 X144.164 Y13.514 E18.03099
G1 X144.361 Y14.141 E18.10906
G1 X151.473 Y40.685 E21.37274
G1 X151.616 Y41.325 E21.45073
G1 X151.729 Y42.143 E21.54876
G1 X151.761 Y42.702 E21.61527
G1 X151.758 Y43.302 E21.68655
G1 X149.788 Y114.865 E30.18896
G1 X149.745 Y115.425 E30.25558
G1 X149.666 Y115.978 E30.32200
G1 X149.553 Y116.527 E30.38853
G1 X149.403 Y117.076 E30.45615
G1 X149.224 Y117.601 E30.52202
G1 X149.011 Y118.115 E30.58813
G1 X148.763 Y118.622 E30.65510
G1 X148.488 Y119.105 E30.72110
G1 X148.180 Y119.575 E30.78787
G1 X147.845 Y120.022 E30.85418
G1 X147.482 Y120.447 E30.92060
G1 X146.891 Y121.040 E31.02001
G1 X125.247 Y140.278 E34.45927
G1 X124.573 Y140.801 E34.56060
G1 X124.103 Y141.109 E34.62731
G1 X123.616 Y141.387 E34.69392
G1 X123.112 Y141.633 E34.76051
G1 X122.591 Y141.848 E34.82744
G1 X121.811 Y142.101 E34.92478
G1 X121.267 Y142.233 E34.99132
G1 X120.715 Y142.329 E35.05781
G1 X120.159 Y142.391 E35.12426
G1 X119.501 Y142.419 E35.20248
G1 X7.099 Y142.419 E48.55199
G1 X6.441 Y142.391 E48.63021
G1 X5.891 Y142.330 E48.69590
G1 X5.333 Y142.233 E48.76315
G1 X4.789 Y142.101 E48.82965
G1 X4.006 Y141.847 E48.92743
G1 X3.488 Y141.633 E48.99395
G1 X2.984 Y141.387 E49.06056
G1 X2.498 Y141.110 E49.12706
G1 X2.029 Y140.803 E49.19357
G1 X1.581 Y140.467 E49.26014
G1 X1.155 Y140.104 E49.32654
G1 X0.752 Y139.714 E49.39322
G1 X0.375 Y139.300 E49.45962
G1 X0.024 Y138.863 E49.52625
G1 X-0.298 Y138.406 E49.59264
G1 X-0.591 Y137.929 E49.65913
G1 X-0.854 Y137.432 E49.72597
G1 X-1.085 Y136.923 E49.79227
G1 X-1.283 Y136.399 E49.85876
G1 X-1.447 Y135.868 E49.92485
G1 X-1.634 Y135.029 E50.02686
G1 X-1.713 Y134.476 E50.09326
G1 X-1.756 Y133.916 E50.15991
G1 X-1.763 Y40.055 E61.30736
G1 X-1.713 Y39.282 E61.39940
G1 X-1.579 Y38.437 E61.50095
G1 X-1.448 Y37.893 E61.56749
G1 X-1.193 Y37.110 E61.66523
G1 X-0.980 Y36.592 E61.73176
G1 X-0.591 Y35.829 E61.83351
G1 X-0.149 Y35.132 E61.93148
G1 X0.375 Y34.457 E62.03296
G1 X0.939 Y33.856 E62.13083
G1 X1.581 Y33.291 E62.23238
G1 X2.029 Y32.955 E62.29886
G1 X2.725 Y32.513 E62.39679
G1 X3.220 Y32.251 E62.46333
G1 X4.005 Y31.911 E62.56499
G1 X4.789 Y31.656 E62.66281
G1 X5.447 Y31.502 E62.74308
G1 E61.74308 F3000.00000
G92 E0
G1 X61.565 Y113.067 F7800.000
G1 E1.00000 F3000.00000
G1 F450
G1 X62.388 Y112.647 E1.10969
G1 X63.370 Y112.491 E1.22782
G1 X64.244 Y112.662 E1.33362
G1 X65.036 Y113.067 E1.43931
G1 X65.687 Y113.718 E1.54857
G1 X66.107 Y114.540 E1.65821
G1 X66.253 Y115.452 E1.76798
G1 X66.107 Y116.367 E1.87791
G1 X65.687 Y117.189 E1.98760
G1 X65.036 Y117.839 E2.09686
G1 X64.212 Y118.261 E2.20682
G1 X63.302 Y118.403 E2.31625
G1 X62.372 Y118.258 E2.42799
G1 X61.536 Y117.810 E2.54060
G1 X60.915 Y117.189 E2.64501
G1 X60.494 Y116.367 E2.75470
G1 X60.349 Y115.452 E2.86463
G1 X60.497 Y114.522 E2.97655
G1 X60.944 Y113.689 E3.08879
G1 X61.523 Y113.110 E3.18606
G1 X61.991 Y113.652 F7800.000
G1 F450
G1 X62.612 Y113.334 E3.26890
G1 X63.357 Y113.216 E3.35850
G1 X64.008 Y113.344 E3.43735
G1 X64.611 Y113.652 E3.51775
G1 X65.102 Y114.143 E3.60028
G1 X65.420 Y114.764 E3.68308
G1 X65.529 Y115.453 E3.76590
G1 X65.420 Y116.142 E3.84886
G1 X65.102 Y116.763 E3.93170
G1 X64.611 Y117.255 E4.01423
G1 X63.989 Y117.573 E4.09723
G1 X63.302 Y117.680 E4.17983
G1 X62.602 Y117.571 E4.26389
G1 X61.967 Y117.231 E4.34953
G1 X61.499 Y116.763 E4.42803
G1 X61.182 Y116.142 E4.51087
G1 X61.072 Y115.453 E4.59384
G1 X61.184 Y114.753 E4.67796
G1 X61.523 Y114.119 E4.76337
G1 X61.948 Y113.694 E4.83474
G1 X62.416 Y114.236 F7800.000
G1 F450
G1 X62.836 Y114.022 E4.89073
G1 X63.344 Y113.941 E4.95181
G1 X63.772 Y114.025 E5.00370
G1 X64.186 Y114.236 E5.05881
G1 X64.518 Y114.569 E5.11460
G1 X64.732 Y114.988 E5.17058
G1 X64.806 Y115.453 E5.22645
G1 X64.732 Y115.918 E5.28244
G1 X64.518 Y116.338 E5.33843
G1 X64.186 Y116.670 E5.39422
G1 X63.765 Y116.885 E5.45027
G1 X63.301 Y116.958 E5.50604
G1 X62.832 Y116.885 E5.56242
G1 X62.397 Y116.651 E5.62108
G1 X62.084 Y116.338 E5.67368
G1 X61.869 Y115.918 E5.72967
G1 X61.795 Y115.453 E5.78566
G1 X61.870 Y114.984 E5.84199
G1 X62.103 Y114.550 E5.90057
G1 X62.374 Y114.279 E5.94605
G1 X62.416 Y114.236 F7800.000
G1 E4.94605 F3000.00000
G92 E0
G1 X98.448 Y115.452 F7800.000
G1 E1.00000 F3000.00000
G1 F450
G1 X98.593 Y114.540 E1.10977
G1 X99.014 Y113.718 E1.21941
G1 X99.664 Y113.067 E1.32867
G1 X100.487 Y112.647 E1.43836
G1 X101.360 Y112.508 E1.54340
G1 X102.297 Y112.639 E1.65577
G1 X103.135 Y113.067 E1.76758
G1 X103.786 Y113.718 E1.87685
G1 X104.206 Y114.540 E1.98648
G1 X104.352 Y115.452 E2.09625
G1 X104.206 Y116.367 E2.20619
G1 X103.786 Y117.189 E2.31587
G1 X103.135 Y117.839 E2.42513
G1 X102.311 Y118.261 E2.53510
G1 X101.401 Y118.403 E2.64452
G1 X100.489 Y118.261 E2.75412
G1 X99.664 Y117.839 E2.86413
G1 X99.014 Y117.189 E2.97339
G1 X98.593 Y116.367 E3.08308
G1 X98.457 Y115.512 E3.18589
G1 X99.171 Y115.453 F7800.000
G1 F450
G1 X99.281 Y114.764 E3.26870
G1 X99.598 Y114.143 E3.35151
G1 X100.090 Y113.652 E3.43404
G1 X100.711 Y113.334 E3.51688
G1 X101.367 Y113.230 E3.59580
G1 X102.079 Y113.329 E3.68121
G1 X102.710 Y113.652 E3.76535
G1 X103.201 Y114.143 E3.84788
G1 X103.519 Y114.764 E3.93068
G1 X103.628 Y115.453 E4.01350
G1 X103.519 Y116.142 E4.09646
G1 X103.201 Y116.763 E4.17930
G1 X102.710 Y117.255 E4.26183
G1 X102.088 Y117.573 E4.34483
G1 X101.401 Y117.680 E4.42743
G1 X100.712 Y117.573 E4.51018
G1 X100.090 Y117.255 E4.59322
G1 X99.598 Y116.763 E4.67575
G1 X99.281 Y116.142 E4.75858
G1 X99.181 Y115.512 E4.83442
G1 X99.894 Y115.453 F7800.000
G1 F450
G1 X99.968 Y114.988 E4.89029
G1 X100.183 Y114.569 E4.94627
G1 X100.515 Y114.236 E5.00206
G1 X100.935 Y114.022 E5.05804
G1 X101.374 Y113.952 E5.11084
G1 X101.861 Y114.020 E5.16930
G1 X102.285 Y114.236 E5.22576
G1 X102.617 Y114.569 E5.28155
G1 X102.831 Y114.988 E5.33753
G1 X102.905 Y115.453 E5.39339
G1 X102.831 Y115.918 E5.44938
G1 X102.617 Y116.338 E5.50537
G1 X102.285 Y116.670 E5.56116
G1 X101.864 Y116.885 E5.61721
G1 X101.400 Y116.958 E5.67299
G1 X100.935 Y116.885 E5.72889
G1 X100.515 Y116.670 E5.78495
G1 X100.183 Y116.338 E5.84074
G1 X99.968 Y115.918 E5.89673
G1 X99.904 Y115.512 E5.94560
G1 X99.894 Y115.453 F7800.000
G1 E4.94560 F3000.00000
G92 E0
G1 X101.401 Y80.303 F7800.000
G1 E1.00000 F3000.00000
G1 F450
G1 X100.489 Y80.161 E1.10960
G1 X99.665 Y79.739 E1.21960
G1 X99.014 Y79.089 E1.32887
G1 X98.594 Y78.267 E1.43856
G1 X98.449 Y77.352 E1.54849
G1 X98.594 Y76.440 E1.65826
G1 X99.014 Y75.618 E1.76789
G1 X99.665 Y74.967 E1.87715
G1 X100.487 Y74.547 E1.98684
G1 X101.361 Y74.408 E2.09188
G1 X102.298 Y74.539 E2.20426
G1 X103.136 Y74.967 E2.31607
G1 X103.786 Y75.618 E2.42533
G1 X104.207 Y76.440 E2.53497
G1 X104.352 Y77.352 E2.64474
G1 X104.207 Y78.267 E2.75467
G1 X103.786 Y79.089 E2.86436
G1 X103.136 Y79.739 E2.97363
G1 X102.312 Y80.161 E3.08358
G1 X101.461 Y80.294 E3.18589
G1 X101.401 Y79.580 F7800.000
G1 F450
G1 X100.713 Y79.473 E3.26864
G1 X100.090 Y79.155 E3.35167
G1 X99.599 Y78.663 E3.43420
G1 X99.281 Y78.042 E3.51704
G1 X99.172 Y77.353 E3.60000
G1 X99.281 Y76.664 E3.68282
G1 X99.599 Y76.043 E3.76562
G1 X100.090 Y75.552 E3.84815
G1 X100.711 Y75.234 E3.93099
G1 X101.367 Y75.130 E4.00991
G1 X102.080 Y75.229 E4.09533
G1 X102.710 Y75.552 E4.17946
G1 X103.202 Y76.043 E4.26198
G1 X103.519 Y76.664 E4.34479
G1 X103.629 Y77.353 E4.42761
G1 X103.519 Y78.042 E4.51057
G1 X103.202 Y78.663 E4.59341
G1 X102.710 Y79.155 E4.67594
G1 X102.088 Y79.473 E4.75894
G1 X101.460 Y79.571 E4.83442
G1 X101.401 Y78.858 F7800.000
G1 F450
G1 X100.936 Y78.785 E4.89032
G1 X100.516 Y78.570 E4.94638
G1 X100.183 Y78.238 E5.00217
G1 X99.969 Y77.818 E5.05816
G1 X99.895 Y77.353 E5.11416
G1 X99.969 Y76.888 E5.17002
G1 X100.183 Y76.469 E5.22600
G1 X100.516 Y76.136 E5.28179
G1 X100.935 Y75.922 E5.33778
G1 X101.374 Y75.852 E5.39057
G1 X101.862 Y75.920 E5.44904
G1 X102.285 Y76.136 E5.50549
G1 X102.617 Y76.469 E5.56128
G1 X102.832 Y76.888 E5.61726
G1 X102.906 Y77.353 E5.67312
G1 X102.832 Y77.818 E5.72912
G1 X102.617 Y78.238 E5.78511
G1 X102.285 Y78.570 E5.84090
G1 X101.865 Y78.785 E5.89695
G1 X101.460 Y78.848 E5.94560
G1 X101.401 Y78.858 F7800.000
G1 E4.94560 F3000.00000
G92 E0
G1 X66.253 Y77.352 F7800.000
G1 E1.00000 F3000.00000
G1 F450
G1 X66.107 Y78.267 E1.10993
G1 X65.687 Y79.089 E1.21962
G1 X65.036 Y79.739 E1.32889
G1 X64.212 Y80.161 E1.43885
G1 X63.302 Y80.303 E1.54827
G1 X62.390 Y80.161 E1.65787
G1 X61.565 Y79.739 E1.76788
G1 X60.915 Y79.089 E1.87714
G1 X60.494 Y78.267 E1.98683
G1 X60.349 Y77.352 E2.09676
G1 X60.494 Y76.440 E2.20653
G1 X60.915 Y75.618 E2.31617
G1 X61.565 Y74.967 E2.42543
G1 X62.388 Y74.547 E2.53512
G1 X63.370 Y74.391 E2.65324
G1 X64.262 Y74.565 E2.76118
G1 X65.065 Y74.996 E2.86946
G1 X65.687 Y75.618 E2.97387
G1 X66.107 Y76.440 E3.08350
G1 X66.243 Y77.293 E3.18614
G1 X65.529 Y77.353 F7800.000
G1 F450
G1 X65.420 Y78.042 E3.26911
G1 X65.102 Y78.663 E3.35195
G1 X64.611 Y79.155 E3.43448
G1 X63.989 Y79.473 E3.51748
G1 X63.302 Y79.580 E3.60008
G1 X62.613 Y79.473 E3.68283
G1 X61.991 Y79.155 E3.76586
G1 X61.499 Y78.663 E3.84839
G1 X61.182 Y78.042 E3.93123
G1 X61.072 Y77.353 E4.01419
G1 X61.182 Y76.664 E4.09701
G1 X61.499 Y76.043 E4.17982
G1 X61.991 Y75.552 E4.26234
G1 X62.612 Y75.234 E4.34518
G1 X63.357 Y75.116 E4.43478
G1 X64.019 Y75.246 E4.51493
G1 X64.635 Y75.576 E4.59792
G1 X65.102 Y76.043 E4.67643
G1 X65.420 Y76.664 E4.75924
G1 X65.520 Y77.293 E4.83493
G1 X64.806 Y77.353 F7800.000
G1 F450
G1 X64.732 Y77.818 E4.89092
G1 X64.518 Y78.238 E4.94691
G1 X64.186 Y78.570 E5.00270
G1 X63.765 Y78.785 E5.05875
G1 X63.301 Y78.858 E5.11452
G1 X62.836 Y78.785 E5.17043
G1 X62.416 Y78.570 E5.22649
G1 X62.084 Y78.238 E5.28228
G1 X61.869 Y77.818 E5.33827
G1 X61.795 Y77.353 E5.39426
G1 X61.869 Y76.888 E5.45013
G1 X62.084 Y76.469 E5.50610
G1 X62.416 Y76.136 E5.56189
G1 X62.836 Y75.922 E5.61788
G1 X63.344 Y75.841 E5.67896
G1 X63.776 Y75.926 E5.73131
G1 X64.205 Y76.155 E5.78902
G1 X64.518 Y76.469 E5.84163
G1 X64.732 Y76.888 E5.89760
G1 X64.797 Y77.293 E5.94634
G1 X64.806 Y77.353 F7800.000
G1 E4.94634 F3000.00000
G92 E0
G1 X28.007 Y59.217 F7800.000
G1 E1.00000 F3000.00000
G1 F450
G1 X27.587 Y60.039 E1.10969
G1 X26.936 Y60.689 E1.21896
G1 X26.112 Y61.111 E1.32891
G1 X25.202 Y61.253 E1.43834
G1 X24.290 Y61.111 E1.54794
G1 X23.465 Y60.689 E1.65794
G1 X22.815 Y60.039 E1.76721
G1 X22.394 Y59.217 E1.87689
G1 X22.249 Y58.302 E1.98683
G1 X22.394 Y57.390 E2.09659
G1 X22.815 Y56.568 E2.20623
G1 X23.465 Y55.917 E2.31550
G1 X24.288 Y55.497 E2.42519
G1 X25.161 Y55.358 E2.53023
G1 X26.098 Y55.489 E2.64260
G1 X26.936 Y55.917 E2.75441
G1 X27.587 Y56.568 E2.86367
G1 X28.007 Y57.390 E2.97331
G1 X28.153 Y58.302 E3.08308
G1 X28.017 Y59.157 E3.18589
G1 X27.320 Y58.992 F7800.000
G1 F450
G1 X27.002 Y59.613 E3.26873
G1 X26.511 Y60.105 E3.35125
G1 X25.889 Y60.423 E3.43425
G1 X25.202 Y60.530 E3.51686
G1 X24.513 Y60.423 E3.59961
G1 X23.891 Y60.105 E3.68264
G1 X23.399 Y59.613 E3.76517
G1 X23.082 Y58.992 E3.84801
G1 X22.972 Y58.303 E3.93097
G1 X23.082 Y57.614 E4.01378
G1 X23.399 Y56.993 E4.09659
G1 X23.891 Y56.502 E4.17912
G1 X24.512 Y56.184 E4.26196
G1 X25.168 Y56.080 E4.34088
G1 X25.880 Y56.179 E4.42630
G1 X26.511 Y56.502 E4.51043
G1 X27.002 Y56.993 E4.59296
G1 X27.320 Y57.614 E4.67577
G1 X27.430 Y58.303 E4.75858
G1 X27.329 Y58.933 E4.83442
G1 X26.632 Y58.768 F7800.000
G1 F450
G1 X26.418 Y59.188 E4.89041
G1 X26.086 Y59.520 E4.94620
G1 X25.665 Y59.735 E5.00224
G1 X25.201 Y59.808 E5.05802
G1 X24.736 Y59.735 E5.11393
G1 X24.316 Y59.520 E5.16999
G1 X23.984 Y59.188 E5.22578
G1 X23.769 Y58.768 E5.28176
G1 X23.695 Y58.303 E5.33776
G1 X23.769 Y57.838 E5.39362
G1 X23.984 Y57.419 E5.44960
G1 X24.316 Y57.086 E5.50539
G1 X24.736 Y56.872 E5.56138
G1 X25.175 Y56.802 E5.61417
G1 X25.662 Y56.870 E5.67264
G1 X26.086 Y57.086 E5.72909
G1 X26.418 Y57.419 E5.78488
G1 X26.632 Y57.838 E5.84086
G1 X26.706 Y58.303 E5.89673
G1 X26.642 Y58.709 E5.94559
G1 X26.632 Y58.768 F7800.000
G1 E4.94559 F3000.00000
G92 E0
G1 X25.161 Y112.508 F7800.000
G1 E1.00000 F3000.00000
G1 F450
G1 X26.098 Y112.639 E1.11237
G1 X26.936 Y113.067 E1.22418
G1 X27.587 Y113.718 E1.33345
G1 X28.007 Y114.540 E1.44309
G1 X28.153 Y115.452 E1.55285
G1 X28.007 Y116.367 E1.66279
G1 X27.587 Y117.189 E1.77247
G1 X26.936 Y117.839 E1.88174
G1 X26.112 Y118.261 E1.99170
G1 X25.202 Y118.403 E2.10113
G1 X24.290 Y118.261 E2.21072
G1 X23.465 Y117.839 E2.32073
G1 X22.815 Y117.189 E2.43000
G1 X22.394 Y116.367 E2.53968
G1 X22.249 Y115.452 E2.64962
G1 X22.394 Y114.540 E2.75938
G1 X22.815 Y113.718 E2.86902
G1 X23.465 Y113.067 E2.97829
G1 X24.288 Y112.647 E3.08798
G1 X25.102 Y112.517 E3.18589
G1 X25.168 Y113.230 F7800.000
G1 F450
G1 X25.880 Y113.329 E3.27131
G1 X26.511 Y113.652 E3.35544
G1 X27.002 Y114.143 E3.43797
G1 X27.320 Y114.764 E3.52078
G1 X27.430 Y115.453 E3.60359
G1 X27.320 Y116.142 E3.68656
G1 X27.002 Y116.763 E3.76939
G1 X26.511 Y117.255 E3.85192
G1 X25.889 Y117.573 E3.93493
G1 X25.202 Y117.680 E4.01753
G1 X24.513 Y117.573 E4.10028
G1 X23.891 Y117.255 E4.18331
G1 X23.399 Y116.763 E4.26584
G1 X23.082 Y116.142 E4.34868
G1 X22.972 Y115.453 E4.43164
G1 X23.082 Y114.764 E4.51446
G1 X23.399 Y114.143 E4.59726
G1 X23.891 Y113.652 E4.67979
G1 X24.512 Y113.334 E4.76263
G1 X25.109 Y113.239 E4.83442
G1 X25.175 Y113.952 F7800.000
G1 F450
G1 X25.662 Y114.020 E4.89289
G1 X26.086 Y114.236 E4.94934
G1 X26.418 Y114.569 E5.00513
G1 X26.632 Y114.988 E5.06111
G1 X26.706 Y115.453 E5.11698
G1 X26.632 Y115.918 E5.17297
G1 X26.418 Y116.338 E5.22896
G1 X26.086 Y116.670 E5.28475
G1 X25.665 Y116.885 E5.34080
G1 X25.201 Y116.958 E5.39657
G1 X24.736 Y116.885 E5.45248
G1 X24.316 Y116.670 E5.50854
G1 X23.984 Y116.338 E5.56433
G1 X23.769 Y115.918 E5.62032
G1 X23.695 Y115.453 E5.67631
G1 X23.769 Y114.988 E5.73218
G1 X23.984 Y114.569 E5.78816
G1 X24.316 Y114.236 E5.84394
G1 X24.736 Y114.022 E5.89994
G1 X25.116 Y113.961 E5.94560
G1 X25.175 Y113.952 F7800.000
G1 E4.94560 F3000.00000
G92 E0
G1 X130.821 Y42.212 F7800.000
G1 E1.00000 F3000.00000
G1 F450
G1 X130.490 Y41.349 E1.10976
G1 X130.443 Y40.427 E1.21940
G1 X130.681 Y39.538 E1.32867
G1 X131.183 Y38.763 E1.43836
G1 X131.902 Y38.180 E1.54829
G1 X132.766 Y37.850 E1.65805
G1 X133.646 Y37.805 E1.76281
G1 X134.561 Y38.031 E1.87469
G1 X135.351 Y38.543 E1.98649
G1 X135.933 Y39.260 E2.09625
G1 X136.265 Y40.125 E2.20618
G1 X136.312 Y41.047 E2.31587
G1 X136.074 Y41.936 E2.42514
G1 X135.570 Y42.713 E2.53510
G1 X134.853 Y43.291 E2.64452
G1 X133.993 Y43.624 E2.75412
G1 X133.068 Y43.671 E2.86413
G1 X132.179 Y43.433 E2.97339
G1 X131.404 Y42.931 E3.08309
G1 X130.858 Y42.259 E3.18589
G1 X131.447 Y41.851 F7800.000
G1 F450
G1 X131.198 Y41.200 E3.26870
G1 X131.162 Y40.503 E3.35151
G1 X131.342 Y39.832 E3.43404
G1 X131.721 Y39.246 E3.51688
G1 X132.264 Y38.807 E3.59984
G1 X132.915 Y38.557 E3.68266
G1 X133.577 Y38.524 E3.76143
G1 X134.273 Y38.696 E3.84657
G1 X134.868 Y39.081 E3.93069
G1 X135.307 Y39.622 E4.01350
G1 X135.557 Y40.274 E4.09646
G1 X135.593 Y40.971 E4.17930
G1 X135.413 Y41.642 E4.26183
G1 X135.033 Y42.229 E4.34483
